X: 22583
T: Lady Of The House, The
R: reel
M: 4/4
K: Gmajor
|:GABG c2BA|GBdg (3ege dB|GABG A2 (3Bcd|eA~A2 eA~A2|
GABG c2BA|GBdg (3ege dB|GABG A2Bc|dBAc BGG2:|
|:gfeg fedf|efge dBAB|GABG A2 (3Bcd|eA~A2 eA~A2|
gfeg fedf|efge dBAB|GABG A2Bc|dBAc BGG2:|

